!!!!SEGMENT: pl-wtm--2197-sp-10910_joteyko-tadeusz--szum-drzew-op-44-no-2-przyplynal-ku-mnie.krn
!!!cenid: 19xx:124
!!!COM: Joteyko, Tadeusz
!!!COM-rismID: pe50046072
!!!CDT: 1872-1932
!!!CNT: Polish
!!!OTL: Szum drzew Op. 44 No. 2/Przypłynął ku mnie
!!!PDT: 1924
!!!AGN: Secular; Song
!!!YEC: Copyright 2022 Narodowy Instytut Fryderyka Chopina (https://polishscores.org)
!!!YEM: License CC-BY-4.0 (https://creativecommons.org/licenses/by/4.0)
!!!SMS-siglum: PL-Wtm
!!!SMS-shelfmark: 2197 śp 10910
!!!SMS-variant:
!!!SMS-altvar:
!!!SMS-shelfwork: W
!!!NIFC-rismSourceID: 1001166432
!!!NIFC-rismChildID: 1001166432
!!!NIFC-islandoraID: pl-wtm:74469
!!!URL-pdf-islandora: https://repozytorium.nifc.pl/islandora/object/pl-wtm%3A74469/datastream/PDF/view
!!!URL-scan: https://polish.musicsources.pl/pl/lokalizacje/galeria/druki-muzyczne/19211/2 @EN{Scan on Polish Music Sources Website} @PL{Skany w portalu Dziedzictwo Muzyki Polskiej w otwartym dostępie}
!!!IIIF:
!!!ONB-nifc:
!!!AIN: 1 canto 1 piano
!!!key: none
**kern	**kern	**dynam	**kern	**text	**text
*part2	*part2	*part2	*part1	*part1	*part1
*staff3	*staff2	*staf1/2	*staff1	*staff1	*staff1
*group2	*group2	*	*group1	*	*
*IGacmp	*IGacmp	*	*IGsolo	*	*
*ICklav	*ICklav	*	*ICvox	*	*
*Ipiano	*Ipiano	*	*Icanto	*	*
*I"Piano.	*I"Piano.	*	*I"Chant.	*	*
*I'	*I'	*	*I'	*	*
*clefF4	*clefG2	*	*clefG2	*	*
*k[]	*k[]	*	*k[]	*	*
*a:	*a:	*	*a:	*	*
*M3/4	*M3/4	*	*M3/4	*	*
=1	=1	=1	=1	=1	=1
*	*	*	*^	*	*
!!LO:TX:a:B:t=Moderato e tranquillo.
[4G#X: [4E: [>4BB-X: [4EE:/	(16g#LL 16c/	pp	8r	4ryy	.	.
.	16cc 16e/	.	.	.	.	.
.	16g# 16c/	.	8e/	.	Przy-	Un
.	16ccJJ 16e/	.	.	.	.	.
8G#] 8E] 8BB-] 8EE/]	16g#LL 16c/	.	4e/	8ryy	-pły-	souf-
.	16cc 16e/	.	.	.	.	.
8r	16g# 16c/	.	.	8ryy	.	.
.	16ccJJ 16e/	.	.	.	.	.
*	*	*	*	*cue	*	*
!LO:TX:t=P:problem:# w nawiasie	!	!	!	!	!	!
(16G#X\LL	16ccLL 16e/	.	4e/	8e\	-nął	-fle
16c\	16ee 16g#/	.	.	.	.	.
16G#\	16cc 16e/	.	.	8e\	.	lé-
*	*	*	*	*Xcue	*	*
16c\JJ)	16eeJJ 16g#/)	.	.	.	.	.
*	*	*	*v	*v	*	*
=2	=2	=2	=2	=2	=2
*tremolo	*tremolo	*	*	*	*
(16E\LL	(16g#LL 16c/	.	2g#X/	ku	-ger
16G#X\	16cc 16e/	.	.	.	.
16E\	16g# 16c/	.	.	.	.
16G#\	16cc 16e/	.	.	.	.
16E\	16g# 16c/	.	.	.	.
16G#\	16cc 16e/	.	.	.	.
16E\	16g# 16c/	.	.	.	.
16G#\JJ	16ccJJ 16e/	.	.	.	.
*Xtremolo	*Xtremolo	*	*	*	*
16G#\LL	16ccLL 16e/	.	4g#/	mnie	par-
16c\	16ee 16g#/	.	.	.	.
16G#\	16cc 16e/	.	.	.	.
16c\JJ)	16eeJJ 16g#/)	.	.	.	.
=3	=3	=3	=3	=3	=3
*^	*	*	*	*	*
*tremolo	*	*tremolo	*	*	*	*
(<16E/LL	2D\	(<16g#LL 16c/	.	8.e/	ci-	-vint
16G#X/	.	16cc 16e/	.	.	.	.
16E/	.	16g# 16c/	.	.	.	.
16G#/	.	16cc 16e/	.	16e/	-chy,	à
16E/	.	16g# 16c/	.	4e/	przy-	mes
16G#/	.	16cc 16e/	.	.	.	.
16E/	.	16g# 16c/	.	.	.	.
16G#/JJ	.	16ccJJ 16e/	.	.	.	.
*Xtremolo	*	*Xtremolo	*	*	*	*
16G#/LL	4F#X\	16ccLL 16e/	.	4e/	-tłu-	o-
16c/	.	16ee 16g#/	.	.	.	.
16G#/	.	16cc 16e/	.	.	.	.
16c/JJ	.	16eeJJ 16g#/	.	.	.	.
!!LO:LB:g=original
=4	=4	=4	=4	=4	=4	=4
16c/LL	4B-\	16eeLL 16g#X\	.	2g#X/	-mio-	-reil-
16e/	.	16gg#X 16cc\	.	.	.	.
16c/	.	16ee 16g#\	<	.	.	.
16e/JJ	.	16gg#JJ 16cc\	.	.	.	.
*clefG2	*	*	*	*	*	*
16e/LL	4d\	16gg#LL 16cc\	.	.	.	.
16g#X/	.	16ccc 16ee\	.	.	.	.
16e/	.	16gg# 16cc\	.	.	.	.
16g#/JJ	.	16cccJJ 16ee\	.	.	.	.
16g#/LL	4f#X\	16cccLL 16ee\	.	4g#/	-ny	-les,
!	!	!LO:TX:t=P:problem:# w nawiasie	!	!	!	!
16cc/	.	16eee 16gg#X\	.	.	.	.
16g#/	.	16ccc 16ee\	.	.	.	.
16cc/JJ)	.	16eeeJJ 16gg#\)	[	.	.	.
*v	*v	*	*	*	*	*
*clefF4	*	*	*	*	*
=5	=5	=5	=5	=5	=5
*	*	*	*^	*	*
*	*	*	*	*cue	*	*
[4B: [4G: [>4D-X: [4GG:\	(16bLL 16e-X/	pp	2gn/	4g\	jęk,	souf-
.	16ee-X 16g/	.	.	.	.	.
.	16b 16e-/	.	.	.	.	.
.	16ee-JJ 16g/	.	.	.	.	.
8B] 8G] 8D-] 8GG\]	16bLL 16e-/	.	.	4g\	.	-fle
*	*	*	*	*Xcue	*	*
.	16ee- 16g/	.	.	.	.	.
8r	16b 16e-/	.	.	.	.	.
.	16ee-JJ 16g/	.	.	.	.	.
(16B\LL	16ee-LL 16g/	.	8.g/	4ryy	wszczę-	pro-
16e-X\	16gg 16b/	.	.	.	.	.
16B\	16ee- 16g/	.	.	.	.	.
16e-\JJ)	16ggJJ 16b/)	.	16g/	.	-ty	-ve-
*	*	*	*v	*v	*	*
=6	=6	=6	=6	=6	=6
*tremolo	*tremolo	*	*	*	*
(16G\LL	(<16bLL 16e-X/	.	2b\	w sos-	-nant
16B\	16ee-X 16g/	.	.	.	.
16G\	16b 16e-/	.	.	.	.
16B\	16ee- 16g/	.	.	.	.
16G\	16b 16e-/	.	.	.	.
16B\	16ee- 16g/	.	.	.	.
16G\	16b 16e-/	.	.	.	.
16B\JJ	16ee-JJ 16g/	.	.	.	.
*Xtremolo	*Xtremolo	*	*	*	*
16B\LL	16ee-LL 16g\	.	4b\	-nach	des
16e-X\	16gg 16b\	.	.	.	.
16B\	16ee- 16g\	.	.	.	.
16e-\JJ)	16ggJJ 16b\)	.	.	.	.
!!LO:LB:g=original
=7	=7	=7	=7	=7	=7
*^	*	*	*	*	*
*tremolo	*	*tremolo	*	*	*	*
(<16G/LL	2F\	(<16bLL 16e-X/	.	4.b\	na	bords
16B/	.	16ee-X 16g/	.	.	.	.
16G/	.	16b 16e-/	.	.	.	.
16B/	.	16ee- 16g/	.	.	.	.
16G/	.	16b 16e-/	.	.	.	.
16B/	.	16ee- 16g/	.	.	.	.
16G/	.	16b 16e-/	.	8b\	kra-	de
16B/JJ	.	16ee-JJ 16g/	.	.	.	.
*Xtremolo	*	*Xtremolo	*	*	*	*
16B/LL	4A\	16ee-LL 16g\	.	8b\	-wę-	la
16e-X/	.	16gg 16b\	.	.	.	.
16B/	.	16ee- 16g\	.	8b\	-dzi	fo-
16e-/JJ	.	16ggJJ 16b\	<	.	.	.
*clefG2	*	*	*	*	*	*
=8	=8	=8	=8	=8	=8	=8
16e-X/LL	4d-\	16ggLL 16b\	.	[2dd#X\	bo-	-rêt,
16g/	.	16bb 16ee-X\	.	.	.	.
16e-/	.	16gg 16b\	.	.	.	.
16g/JJ	.	16bbJJ 16ee-\	.	.	.	.
16g/LL	4f\	16bbLL 16ee-\	.	.	.	.
16b/	.	16eee-X 16gg\	.	.	.	.
16g/	.	16bb 16ee-\	.	.	.	.
16b/JJ	.	16eee-JJ 16gg\	.	.	.	.
16b/LL	4a\	16eee-LL 16gg\	.	4dd#\]	-ru	.
16ee-X/	.	16ggg 16bb\	.	.	.	.
16b/	.	16eee- 16gg\	.	.	.	.
16ee-/JJ)	.	16gggJJ 16bb\)	[	.	.	.
*v	*v	*	*	*	*	*
*clefF4	*	*	*	*	*
=9	=9	=9	=9	=9	=9
*	*	*	*^	*	*
(16d\LL	(16dddLL 16ff#X\	p	4r	4ryy	.	.
16c\J	16fff#X 16bb-X\	.	.	.	.	.
8B-X\J	16ddd 16ff#\	.	.	.	.	.
.	16fff#JJ 16bb-\	.	.	.	.	.
4.d^\	16bb-LL 16dd\	.	4ff#X\	4ryy	i	les
.	16ddd 16ff#\	.	.	.	.	.
.	16bb- 16dd\	.	.	.	.	.
.	16dddJJ 16ff#\	.	.	.	.	.
*	*	*	*	*cue	*	*
!	!LO:TX:t=P:problem:# w nawiasie	!	!	!LO:TUP:b	!	!
.	16ff#XLL 16b-X\	.	8.ff#/	12ff#\	wnet	cimes
.	16bb- 16dd\	.	.	.	.	.
.	.	.	.	12ff#\	.	des
8B-\)	16ff# 16b-\	.	.	.	.	.
.	.	.	.	12ff#\	.	.
*	*	*	*	*Xcue	*	*
.	16bb-JJ 16dd\)	.	16ff#/	.	o-	sa-
*	*	*	*v	*v	*	*
!!LO:PB:g=original
=10	=10	=10	=10	=10	=10
*^	*	*	*	*	*
(16f/LL	2.A\	(16ffnXLL 16a\	.	2ffn\	-gar-	pins
16e-X/J	.	16aa 16cc#X\	.	.	.	.
8d-X/J	.	16ff 16a\	.	.	.	.
.	.	16aaJJ 16cc#\	.	.	.	.
4.f^/	.	16aaLL 16cc#\	.	.	.	.
.	.	16ccc#X 16ff\	.	.	.	.
.	.	16aa 16cc#\	.	.	.	.
.	.	16ccc#JJ 16ff\	.	.	.	.
.	.	16ccc#LL 16ff\	.	4ff\	-nął	s’in-
.	.	16fff 16aa\	.	.	.	.
8d-/)	.	16ccc# 16ff\	.	.	.	.
.	.	16fffJJ 16aa\)	.	.	.	.
*clefG2	*	*	*	*	*	*
=11	=11	=11	=11	=11	=11	=11
*	*	*	*	*^	*	*
*	*	*	*	*	*cue	*	*
(16e/LL	4d\	(16gg#XLL 16ccn\	.	4.ee/	4ee\	wszyst-	-cli-
16g#X/	.	16ccc 16ee\	.	.	.	.	.
16e/	.	16gg# 16cc\	<	.	.	.	.
16g#/JJ	.	16cccJJ 16ee\	.	.	.	.	.
16g#/LL	4f#X\	16cccLL 16ee\	.	.	8ee\	.	-nent
*	*	*	*	*	*Xcue	*	*
16cc/	.	16eee 16gg#\	.	.	.	.	.
16g#/	.	16ccc 16ee\	.	8ee/	8ryy	-kich	sous
16cc/JJ	.	16eeeJJ 16gg#\	.	.	.	.	.
16cc/LL	4b-X\	16eeeLL 16gg#\	.	8.ee\	4ryy	drzew	son
16ee/	.	16ggg#X 16ccc\	.	.	.	.	.
16cc/	.	16eee 16gg#\	.	.	.	.	.
16ee/JJ)	.	16ggg#JJ 16ccc\)	[	16ee\	.	ko-	pas-
*v	*v	*	*	*	*	*	*
*clefF4	*	*	*	*	*	*
=12	=12	=12	=12	=12	=12	=12
(16FF#X/LL	2aaa 2eee 2ccc 2aa\	mf	2aa/	2ee\	-ro-	-sa-
16AA/	.	.	.	.	.	.
16C/	.	.	.	.	.	.
16E/JJ	.	.	.	.	.	.
16F#X\LL	.	.	.	.	.	.
16A\	.	.	.	.	.	.
16c\	.	.	.	.	.	.
16e\JJ	.	.	.	.	.	.
*clefG2	*	*	*	*	*	*
16f#X\LL	4ryy	>]	4a/	4ryy	-ny,	-ge,
16a\	.	.	.	.	.	.
16cc\	.	.	.	.	.	.
16ee\JJ)	.	.	.	.	.	.
*	*	*	*v	*v	*	*
!!LO:LB:g=original
=13	=13	=13	=13	=13	=13
*	*8va	*	*	*	*
(8ff#XL 8dd\	(<8bbbL 8eee 8ccc 8bb\	.	4r	.	.
8ee 8cc\	8aaa 8eee 8ccc 8aa\	.	.	.	.
8dd 8b\	8ggg 8eee 8ccc 8gg\	.	4r	.	.
8cc 8a\	8fff#X 8eee 8ccc 8ff#X\	.	.	.	.
8b 8g\	8ggg 8eee 8ccc 8gg\	.	8r	.	.
8aJ 8f#X\)	8aaaJ 8eee 8ccc 8aa\	.	8a/	spo-	ber-
=14	=14	=14	=14	=14	=14
*^	*	*	*	*	*
(8g#X/	2.g# 2.e\	2.bbb-X 2.fff 2.ddd 2.bb-X\	.	2g#X/	-wi-	-cés
4b-X/	.	.	.	.	.	.
8dd/	.	.	.	.	.	.
8ee/L	.	.	.	4g#/	-te	dans
8ff/J)	.	.	.	.	.	.
*v	*v	*	*	*	*	*
=15	=15	=15	=15	=15	=15
(8ff#X\L	2.aaa 2.fff#X 2.ddd 2.aa\)	.	4a/	w ci-	l’air
!LO:TUP:a	!	!	!	!	!
24ee\L	.	>	.	.	.
24dd\	.	.	.	.	.
24bn\JJ	.	.	.	.	.
!LO:TUP:b:r=8:num=3	!	!	!	!	!
24a/LL	.	.	4.a/	-szy	pur
24f#X/	.	.	.	.	.
24e/J	.	.	.	.	.
!LO:TUP:b	!	!	!	!	!
24d/L	.	.	.	.	.
24B/	.	.	.	.	.
24A/JJ	.	.	.	.	.
*clefF4	*	*	*	*	*
16F#X\LL	.	.	.	.	.
16E\	.	.	.	.	.
16D\	.	.	8a/	let-	d’un
16E\JJ	.	]	.	.	.
*	*X8va	*	*	*	*
=16	=16	=16	=16	=16	=16
2.F#X\)	4r	pp	2dd\	-nie-	beau
.	8r	.	.	.	.
.	(>8f#X'>/L	.	.	.	.
.	8f#'>/	.	8d/	-go	soir
.	8f#J 8e'>/)	.	8e/	wie-	d’é
*clefG2	*	*	*	*	*
!!LO:LB:g=original
=17	=17	=17	=17	=17	=17
*	*	*	*^	*	*
*	*	*	*	*cue	*	*
!	!LO:TX:b:i:t=dolcissimo	!	!	!	!	!
(>8f#XL 8e~>/	(16ff#XLL 16dd\	.	4f#X/	2f#\	czo-	té,
.	16eeJ 16cc\	.	.	.	.	.
8f# 8e~>/	8ddJ 8b-X\	.	.	.	.	.
*	*	*	*	*Xcie	*	*
8f# 8e~>/	4.ff# 4.dd^\	.	4f#/	.	-ru,	.
8f# 8e~>/	.	.	.	.	.	.
8f# 8e~>/	.	.	4r	4ryy	.	.
8f#J 8e~>/)	8dd 8b-\)	.	.	.	.	.
=18	=18	=18	=18	=18	=18	=18
(>8fnL 8e-X~>/	(16ggLL 16ee-X\	.	4r	2ryy	.	.
.	16ffJ 16dd-X\	.	.	.	.	.
8f 8e-~>/	8ee-J 8cc-X\	.	.	.	.	.
8f 8e-~>/	4.gg 4.ee-^\	.	4r	.	.	.
8f 8e-~>/	.	.	.	.	.	.
*	*	*	*	*cue	*	*
8f 8e-~>/	.	.	8r	8ee-X\	.	et
8fJ 8e-~>/)	8ee- 8cc-\)	.	8ee-X/	8ee-\	i	mon
*	*	*	*	*Xcue	*	*
*	*	*	*v	*v	*	*
=19	=19	=19	=19	=19	=19
(>8f#XL 8enX~>/	(8ddL 8b-X~\	.	4dd\	mo-	â-
8f# 8e~>/)	8dd 8b-~\)	.	.	.	.
(>8fn 8e-~>/	(8ee-X 8cc-X~\	<	4ee-X\	-ją	-me
8fJ 8e-~>/)	8ee-J 8cc-~\)	[	.	.	.
(>8f#L 8en~>/	(8ddL 8b-~\	.	8dd\	du-	â
8f# 8e~>/)	8dd 8b-~\)	.	8dd\	-szę	ces
=20	=20	=20	=20	=20	=20
*	*	*	*^	*	*
*	*	*	*	*cue	*	*
(>8fn 8e-X~>/	(8ee-X 8cc-X~\	<	4ee-X/	8ee-\	szum	doux
8fJ 8e-~>/)	8ee-J 8cc-~\)	[	.	8ee-\	.	mur-
*	*	*	*	*Xcue	*	*
(>8f#XL 8en~>/	(8ddL 8b-X~\	.	8dd\	2ryy	ten	-mu-
8f# 8e~>/)	8dd 8b-~\)	<	8dd\	.	głę-	-res
(>8fn 8e-X~>/	(8ee- 8cc-~\	.	8ee-\	.	-bo-	s’em-
8fJ 8e-~>/)	8ee-J 8cc-~\)	.	8ee-\	.	-ki	-plis-
*	*	*	*v	*v	*	*
*clefF4	*	*	*	*	*
!!LO:LB:g=original
=21	=21	=21	=21	=21	=21
*	*^	*	*	*	*
(<16FF/LL	[2aa-X/	8ee-XL 8cc-X\	mf	2aa-X\	w dziw-	-sait
16AA-X/	.	.	.	.	.	.
16C-X/	.	8ee- 8cc-\	.	.	.	.
16E-X/JJ	.	.	.	.	.	.
16F\LL	.	8ee- 8cc-\	<	.	.	.
16A-X\	.	.	.	.	.	.
16c-X\	.	8ee-J 8cc-\	.	.	.	.
16e-X\JJ	.	.	.	.	.	.
*clefG2	*	*	*	*	*	*
16f\LL	8aa-/L]	8ee- 8cc-\	.	4ee-X\	-ne	d’é-
16a-X\	.	.	.	.	.	.
16cc-X\	8aa-/J	8r	.	.	.	.
16ee-X\JJ)	.	.	[	.	.	.
*	*v	*v	*	*	*	*
!!LO:LB:g=original
*clefF4	*	*	*	*	*
=22	=22	=22	=22	=22	=22
*	*	*	*^	*	*
*	*	*	*	*cue	*	*
!	!LO:TX:t=P:problem:n w nawiasie	!	!	!	!	!
(<16BB-XLL 16BBB-X/	2bb-X 2gg-X 2ddn 2b-X\	f	2gg-X/	4gg-\	wpra-	-tran-
!LO:TX:t=P:problem:n w nawiasie	!	!	!	!	!	!
16Dn/J	.	.	.	.	.	.
*Xbrackettup	*	*	*	*	*	*
24G-X/L	.	.	.	.	.	.
24A-X/	.	.	.	.	.	.
24B-X/JJ	.	.	.	.	.	.
16d>\LL	.	.	.	4gg-\	.	-ges
16g-X>\	.	.	.	.	.	.
16a-X>\	.	.	.	.	.	.
16g->\JJ)	.	.	.	.	.	.
!LO:TX:t=P:problem:n w nawiasie	!	!	!	!	!	!
(8dnL 8B- 8A- 8F-X~\	(8bb-L 8gg- 8dd 8b-/	.	4b-X/	8b-\	-wiał	rê-
8dJ 8B- 8A- 8F-~\)	8bb-J 8gg- 8dd 8b-/)	.	.	8b-\	.	-ve-
*	*	*	*	*Xcue	*	*
*	*	*	*v	*v	*	*
=23	=23	=23	=23	=23	=23
(<16AA-XLL 16AAA-X/	2bb-X 2ff 2dd-X 2b-X\	.	4ff\	drże-	-ri-
16BB-X/	.	.	.	.	.
16D-X/	.	.	.	.	.
16F/JJ	.	.	.	.	.
16A-X\LL	.	.	4ff\	-nie:	-es
16B-X\J	.	.	.	.	.
!LO:TUP:a	!	!	!	!	!
24d-X\L	.	.	.	.	.
24B-\	.	.	.	.	.
24A-\JJ)	.	.	.	.	.
!LO:TX:t=P:problem:n w nawiasie	!	!	!	!	!
(8d-L 8Gn 8E-X~\	(8bb-L 8ff 8dd- 8b-/	.	4r	.	.
8d-J 8G 8E-~\)	8ddd-XJ 8bb- 8ff 8dd-/)	.	.	.	.
!!LO:PB:g=original
=24	=24	=24	=24	=24	=24
(<16GGn/LL	(<16fffLL 16ddd-X 16bb-X 16ff\	pp	4r	.	.
16BB-X/	16eee-XJ 16ee-X\	.	.	.	.
16D-X/	8ddd-J 8dd-X\	.	.	.	.
16F/JJ	.	.	.	.	.
16G\LL	4.fff 4.ddd- 4.bb- 4.ff^\	.	4ff\	nim	et
16B-X\	.	.	.	.	.
16d-X\	.	.	.	.	.
16f\JJ	.	.	.	.	.
*clefG2	*	*	*	*	*
16g/LL	.	.	8.ff\	się	ou-
16b-X/	.	.	.	.	.
16g/	8ddd- 8bb- 8ff 8dd-\	.	.	.	.
16f/JJ	.	.	16ff\	spo-	-bli-
=25	=25	=25	=25	=25	=25
16d-X/LL	2fff 2ddd-X 2bb-X 2ff\)	.	(4ff\	-strze-	-ant_
16f/	.	.	.	.	.
16d-/	.	.	.	.	.
16B-X/JJ	.	.	.	.	.
*clefF4	*	*	*	*	*
16G\LL	.	.	2dd-X\)	-głem	.
16B-X\	.	.	.	.	.
16G\	.	.	.	.	.
16F\JJ	.	.	.	.	.
16D-X\LL	4r	.	.	.	.
16F\	.	.	.	.	.
16D-\	.	.	.	.	.
16BB-X\JJ)	.	.	.	.	.
=26	=26	=26	=26	=26	=26
*	*	*	*^	*	*
(<16AA/LL	(<16fff#XLL 16ccc#X 16aa 16ff#X\	.	8r	4ryy	.	.
16C#X/	16eeeJ 16ee\	.	.	.	.	.
16F#X/	8ddd#XJ 8dd#X\	.	8cc#X\	.	w cie-	ses
16G#X/JJ	.	.	.	.	.	.
*clefG2	*	*	*	*	*	*
16A/LL	4.fff# 4.ccc# 4.aa 4.ff#^<\	.	4ff#X\	4ryy	-les-	liens
16c#X/	.	.	.	.	.	.
16f#X/	.	.	.	.	.	.
16g#X/JJ	.	.	.	.	.	.
*	*	*	*	*cue	*	*
16a/LL	.	.	8.ff#/	4ff#\	-nej	-ter
16cc#X/	.	.	.	.	.	.
16a/	8ddd# 8aa 8ff# 8dd#\	.	.	.	.	.
16f#/JJ	.	.	16ff#/	.	u-	.
*	*	*	*	*Xcue	*	*
!!LO:LB:g=original
=27	=27	=27	=27	=27	=27	=27
16d#X/LL	2fff#X 2ccc#X 2aa 2ff#X\)	.	4ff#X\	4ryy	-wię-	res-
16f#X/	.	.	.	.	.	.
16d#/	.	.	.	.	.	.
16c#X/JJ	.	.	.	.	.	.
*clefF4	*	*	*	*cue	*	*
16A\LL	.	<	2dd#X/	4.dd#\	-zi,	-tres,
16c#X\	.	.	.	.	.	.
16A\	.	.	.	.	.	.
16F#X\JJ	.	.	.	.	.	.
16D#X\LL	4r	.	.	.	.	.
16F#\	.	.	.	.	.	.
16D#\	.	.	.	8dd#\	.	s’é-
16C#X\JJ)	.	[	.	.	.	.
=28	=28	=28	=28	=28	=28	=28
(<16GG#X/LL	2ggg#X 2eee 2bb#X 2gg#X\	f	2gg#X/	4gg#\	rwie	-chap-
16BB#/J	.	.	.	.	.	.
24E/L	.	.	.	.	.	.
24F#X/	.	.	.	.	.	.
24G#X/JJ	.	.	.	.	.	.
!LO:TUP:b:r=8:num=3	!	!	!	!	!	!
24B#X\LL	.	.	.	4gg#\	.	-pe
24e\	.	.	.	.	.	.
24f#X\J	.	.	.	.	.	.
24g#X\L	.	.	.	.	.	.
24f#\	.	.	.	.	.	.
24e\JJ	.	.	.	.	.	.
*	*	*	*	*Xcue	*	*
!LO:TUP:a:r=8:num=3	!	!	!	!	!	!
24B#/LL	(8gg#XL 8ff#X 8g#X~\	.	8.g#X/	4ryy	się	et
24G#/	.	.	.	.	.	.
24F#/J	.	.	.	.	.	.
24E/L	8gg#J 8ff# 8g#~\)	.	.	.	.	.
!LO:TX:t=P:problem:# w nawiasie	!	!	!	!	!	!
24BB#X/	.	.	.	.	.	.
.	.	.	16g#/	.	i	s’en-
24GG#/JJ)	.	.	.	.	.	.
*	*	*	*v	*v	*	*
=29	=29	=29	=29	=29	=29
*	*8va	*	*	*	*
(<16FF#X/LL	2ggg#X 2ddd#X 2bbn 2gg#X\	.	4dd#X\	pły-	-vo-
16GG#X/	.	.	.	.	.
16BBn/	.	.	.	.	.
16D#X/JJ	.	.	.	.	.
!LO:TUP:a:r=8:num=3	!	!	!	!	!
24F#X\LL	.	.	4dd#\	-nie	-le
24G#X\	.	.	.	.	.
24B\J	.	.	.	.	.
!LO:TUP:a	!	!	!	!	!
24d#X\L	.	>	.	.	.
24B\	.	.	.	.	.
24G#\JJ	.	.	.	.	.
16F#/LL	(8ggg#L 8ddd# 8bb 8gg#\	.	4r	.	.
16D#/J	.	.	.	.	.
24BB/L	8bbbJ 8ggg# 8ddd# 8bb\)	.	.	.	.
24GG#/	.	.	.	.	.
24FF#/JJ)	.	]	.	.	.
!!LO:LB:g=original
=30	=30	=30	=30	=30	=30
*	*	*	*^	*	*
*	*	*	*	*cue	*	*
(16FFn/LL	(<[2.eeee-X [<2.aaa-X [2.eee-X\	pp	4.ee-X/	4ee-\	w ślad	vers
16AA-X/	.	.	.	.	.	.
16C-X/	.	.	.	.	.	.
16E-X/JJ	.	.	.	.	.	.
16Fn\LL	.	.	.	8ee-\	.	les
16A-X\	.	.	.	.	.	.
16c-X\	.	.	8ee-/	8ee-\	za	hau-
16e-X\JJ	.	.	.	.	.	.
*clefG2	*	*	*	*Xcue	*	*
16f\LL	.	.	8cc-X\	8ryy	so-	-teurs
16a-X\	.	.	.	.	.	.
16cc-X\	.	.	8cc-\	8ryy	-sen	cé-
16ee-X\JJ	.	.	.	.	.	.
*	*	*	*v	*v	*	*
=31	=31	=31	=31	=31	=31
8ffL 8ee-X\)	16eeee-]LL 16aaa-] 16eee-\]	.	2ee-X\	śpie-	-les-
.	16dddd-XJ 16ddd-X\	.	.	.	.
(8ffJ 8ee-~\	8cccc-XJ 8ccc-X\	.	.	.	.
!	!LO:SIC:v:s=4.eeee- 4.eee-^\	!	!	!	!
8ffL 8ee-~\	4.eeeeny 4.eeeny^\	.	.	.	.
8ff 8ee-~\	.	.	.	.	.
8ff 8ee-~\	.	.	4ee-\	-wem	-tes,
8ffJ 8ee-~\)	8cccc- 8ccc-\)	.	.	.	.
=32	=32	=32	=32	=32	=32
4r	N(16bbb-X\LL	.	2dd\	gdzieś	sphéres
.	16fff#X\	.	.	.	.
.	16ddd\	.	.	.	.
.	16bb-X\JJ	.	.	.	.
16ff#X\LL	4r	.	.	.	.
16dd\J	.	.	.	.	.
[8b-XJ [8a-X\N)	.	.	.	.	.
4b-] 4a-\]	(16bbb-\LL	.	8dd\	w bez-	in-
.	16fff#\	.	.	.	.
.	16ddd\	.	8dd\	-gra-	con-
.	16bb-\JJ)	.	.	.	.
*	*X8va	*	*	*	*
=33	=33	=33	=33	=33	=33
4r	N(16aaa\LL	.	4cc#X\	-ni-	-nu-
.	16fff\	.	.	.	.
.	16ccc#X\	.	.	.	.
.	16aa\JJ	.	.	.	.
16ff\LL	4r	.	4cc#\	-czne	-es
16cc#X\J	.	.	.	.	.
[8aJ [8g\N)	.	.	.	.	.
4a] 4g\]	(16aaa\LL	.	8r	.	.
.	16fff\	.	.	.	.
.	16ccc#\	.	8cc#\	nie-	à
.	16aa\JJ)	.	.	.	.
*clefF4	*	*	*	*	*
!!LO:LB:g=original
=34	=34	=34	=34	=34	=34
*	*	*	*^	*	*
*	*	*	*	*cue	*	*
[4G#X: [4E: [>4BB-X: [4EE:/	(<16ggg#X\LL	ppp	2ccn/	4.cc\	-zna-	l’ho-
.	16eee\	.	.	.	.	.
.	16ccc\	.	.	.	.	.
.	16gg#X\JJ	.	.	.	.	.
8G#] 8E] 8BB-] 8EE/]	16ee\LL	.	.	.	.	.
.	16cc\	.	.	.	.	.
8r	16g#X\	.	.	8cc\	.	-ri-
.	16cc\JJ	.	.	.	.	.
4c\	16ee\LL	.	8cc/	4cc\	-ne	-zon
*	*	*	*	*Xcue	*	*
.	16gg#\	.	.	.	.	.
.	16ccc\	.	8cc/	.	prze-	.
.	16eee\JJ)	.	.	.	.	.
*	*	*	*v	*v	*	*
*clefG2	*	*	*	*	*
=35	=35	=35	=35	=35	=35
4e/	(<16ggg#X\LL	.	[2.ee\	-strze-	loin-
.	16eee\	.	.	.	.
.	16ccc\	.	.	.	.
.	16gg#X\JJ	.	.	.	.
4g#X/	12ee\L	.	.	.	.
.	12cc\	.	.	.	.
.	12ee\J	.	.	.	.
4cc\	12gg#\L	.	.	.	.
.	12ccc\	.	.	.	.
.	12eee\J)	.	.	.	.
=36	=36	=36	=36	=36	=36
*	*8va	*	*	*	*
[2.ee [2.dd\	(<12ggg#X\L	.	2.ee\_	.	.
.	12cccc\	.	.	.	.
.	12eeee\J	.	.	.	.
.	8ffff#X\L	.	.	.	.
.	8gggg#X\J	.	.	.	.
.	8ffff#\L	.	.	.	.
.	8eeee\J	.	.	.	.
=37	=37	=37	=37	=37	=37
2.ee_ 2.dd\_	8cccc\L	>	2.ee\_	-nie!_	-tain!_
.	8ggg#X\	.	.	.	.
.	8cccc\	.	.	.	.
.	8dddd\	.	.	.	.
.	8eeee\	.	.	.	.
.	8ffff#X\J)	]	.	.	.
=38	=38	=38	=38	=38	=38
!	!LO:TX:b:i:t=perdendosi	!	!	!	!
2.ee_ 2.dd\_	(<8gggg#X\	.	4ee\]	.	.
.	4ffff#X\	.	.	.	.
.	.	.	4r	.	.
.	4eeee\	.	.	.	.
.	.	.	4r	.	.
.	[8dddd\L	.	.	.	.
=39	=39	=39	=39	=39	=39
2.ee_ 2.dd\_	8dddd\J]	.	2.r	.	.
.	4cccc\	.	.	.	.
.	4dddd\	.	.	.	.
.	[8eeee\L	.	.	.	.
=40	=40	=40	=40	=40	=40
2.ee_ 2.dd\_	8eeee\J]	.	2.r	.	.
.	[4ffff#X\	.	.	.	.
.	8ffff#\]	.	.	.	.
.	[4gggg#X\	.	.	.	.
=41	=41	=41	=41	=41	=41
2.ee] 2.dd;\]	2.gggg#;\])	.	2.r;	.	.
*	*X8va	*	*	*	*
==	==	==	==	==	==
*-	*-	*-	*-	*-	*-
!!!system-decoration: g1{(g2)}
!!!RDF**kern: i = editorial accidental
!!!RDF**kern: > = above
!!!RDF**kern: < = below
!!!RDF**kern: N = linked
!!!RDF**dynam: > = "dim.", fontstyle= "italic"
!!!ENC: Anastazja Marusiak
!!!EED: Katarzyna Serwa
!!!END: 2023-09-30
!!!EEV: 2023-10-10
